app/images/hardware-wallet-step-1.svg

<svg height="78" viewBox="0 0 213 78" width="213" xmlns="http://www.w3.org/2000/svg"><g fill="none" fill-rule="evenodd" transform="translate(1 1)"><path d="m4 9h66v8h-66c-2.209139 0-4-1.790861-4-4 0-2.209139 1.790861-4 4-4z" fill="#d9f0ff"/><g stroke="#3098dc" transform="translate(91 31)"><path d="m7.33333333 0 6.09199997 5.29042105-6.09199997 5.28984215"/><path d="m0 5.21052632h13.5"/></g><g transform="translate(109)"><path d="m92.535988 75.1897419h-83.37431135c-2.02350899 0-3.66467066-1.646258-3.66467066-3.6774193v-67.83490325c0-2.03116129 1.64116167-3.67741935 3.66467066-3.67741935h83.37431135c2.0241198 0 3.6646707 1.64625806 3.6646707 3.67741935v67.83490325c0 2.0311613-1.6405509 3.6774193-3.6646707 3.6774193" fill="#fefefe"/><path d="m92.535988 75.1897419h-83.37431135c-2.02350899 0-3.66467066-1.646258-3.66467066-3.6774193v-67.83490325c0-2.03116129 1.64116167-3.67741935 3.66467066-3.67741935h83.37431135c2.0241198 0 3.6646707 1.64625806 3.6646707 3.67741935v67.83490325c0 2.0311613-1.6405509 3.6774193-3.6646707 3.6774193z" stroke="#3098dc"/><path d="m100.70576 75.6298065h-99.48420311c-.67491018 0-1.22155689-.5485484-1.22155689-1.2258065v-4.5330323c0-.677258.54664671-1.2258064 1.22155689-1.2258064h99.48420311c.6743 0 1.221557.5485484 1.221557 1.2258064v4.5330323c0 .6772581-.547257 1.2258065-1.221557 1.2258065" fill="#d9f0ff"/><path d="m100.70576 75.6298065h-99.48420311c-.67491018 0-1.22155689-.5485484-1.22155689-1.2258065v-4.5330323c0-.677258.54664671-1.2258064 1.22155689-1.2258064h99.48420311c.6743 0 1.221557.5485484 1.221557 1.2258064v4.5330323c0 .6772581-.547257 1.2258065-1.221557 1.2258065z" stroke="#3098dc"/><path d="m9.77245509 63.6953548h82.38301801v-58.79212899h-82.38301801z" fill="#fefefe"/><path d="m9.77245509 63.6953548h82.38301801v-58.79212899h-82.38301801z" stroke="#3098dc"/><path d="m53.4327111 51.4764454h-5.0511377c-.0885629 0-.1734611-.0269678-.2461438-.0778387l-2.9891497-2.0912258-1.3143952-1.0866774-7.2951377 2.0280967c-.2265988.0625162-.4648024-.0717096-.5307665-.2997096l-2.1151257-7.3413549c-.0244311-.0839677-.0232096-.1716129.0030539-.2549677l2.2470539-7.0704516-1.3485988-1.5996775c-.0781797-.0925483-.1148264-.215129-.1001677-.3358709.0146587-.120742.0787904-.2310645.1771258-.3021613l.2412574-.1752903-.6736886-.620871c-.0940599-.0876452-.1453652-.2108387-.1410898-.3389355.0048862-.1287097.0653533-.2482258.1649102-.3272903l.3799042-.3015484-.6187186-.4762258c-.1068862-.082129-.171018-.2139032-.1697964-.3499678.0012216-.1366774.0659641-.2672258.1752934-.3487419l.4544192-.3401613-1.0798563-5.2366451c-.0158803-.0747742-.010994-.1544517.0140479-.2286129l1.6460479-5.0012904c.0372575-.1127742.118491-.2059354.2241557-.2561935.1056647-.050871.2278203-.0563871.3371497-.0153226l10.6593054 4.0230968h8.8489581l10.6586946-4.0230968c.1093293-.0416774.2320958-.0355484.3377604.0153226.1062755.050871.187509.1440322.2241557.2561935l1.6466587 5.0031291c.0238204.0710967.0287066.1495484.0134371.2255484l-1.0682515 5.2397096.4470899.3407742c.1087185.082742.1710179.2096129.1716287.3469033.0006108.1354516-.0629102.266-.1691856.3487419l-.6193294.4768387.3792935.3015484c.1001676.0796774.1600239.1991935.1642994.3272903.0048862.1287097-.0464192.2519032-.1404791.3383226l-.6736886.6214839.2418683.1759032c.0977245.0704839.1618562.1808064.1765149.3021613.0146587.1207419-.0225988.2433226-.1007784.3358709l-1.3473773 1.5984517 2.2592695 7.0698387c.0268742.082129.0280958.171.0042754.2555806l-2.1297844 7.3425807c-.0653533.2273871-.3041676.3603871-.5301557.2990967l-7.2951377-2.0280967-1.3540958 1.1160967-2.9494491 2.0618065c-.0726826.0508709-.1581916.0778387-.2461437.0778387" fill="#fefefe"/><path d="m53.4327111 51.4764454h-5.0511377c-.0885629 0-.1734611-.0269678-.2461438-.0778387l-2.9891497-2.0912258-1.3143952-1.0866774-7.2951377 2.0280967c-.2265988.0625162-.4648024-.0717096-.5307665-.2997096l-2.1151257-7.3413549c-.0244311-.0839677-.0232096-.1716129.0030539-.2549677l2.2470539-7.0704516-1.3485988-1.5996775c-.0781797-.0925483-.1148264-.215129-.1001677-.3358709.0146587-.120742.0787904-.2310645.1771258-.3021613l.2412574-.1752903-.6736886-.620871c-.0940599-.0876452-.1453652-.2108387-.1410898-.3389355.0048862-.1287097.0653533-.2482258.1649102-.3272903l.3799042-.3015484-.6187186-.4762258c-.1068862-.082129-.171018-.2139032-.1697964-.3499678.0012216-.1366774.0659641-.2672258.1752934-.3487419l.4544192-.3401613-1.0798563-5.2366451c-.0158803-.0747742-.010994-.1544517.0140479-.2286129l1.6460479-5.0012904c.0372575-.1127742.118491-.2059354.2241557-.2561935.1056647-.050871.2278203-.0563871.3371497-.0153226l10.6593054 4.0230968h8.8489581l10.6586946-4.0230968c.1093293-.0416774.2320958-.0355484.3377604.0153226.1062755.050871.187509.1440322.2241557.2561935l1.6466587 5.0031291c.0238204.0710967.0287066.1495484.0134371.2255484l-1.0682515 5.2397096.4470899.3407742c.1087185.082742.1710179.2096129.1716287.3469033.0006108.1354516-.0629102.266-.1691856.3487419l-.6193294.4768387.3792935.3015484c.1001676.0796774.1600239.1991935.1642994.3272903.0048862.1287097-.0464192.2519032-.1404791.3383226l-.6736886.6214839.2418683.1759032c.0977245.0704839.1618562.1808064.1765149.3021613.0146587.1207419-.0225988.2433226-.1007784.3358709l-1.3473773 1.5984517 2.2592695 7.0698387c.0268742.082129.0280958.171.0042754.2555806l-2.1297844 7.3425807c-.0653533.2273871-.3041676.3603871-.5301557.2990967l-7.2951377-2.0280967-1.3540958 1.1160967-2.9494491 2.0618065c-.0726826.0508709-.1581916.0778387-.2461437.0778387z" stroke="#3098dc"/><g fill="#3098dc"><path d="m52.0480958 46.5806452h-2.5701557l-.4458682.3548709-.1697965 2.1390323h3.8014851l-.1704072-2.1390323z"/><path d="m54.8341371 38.1394234-1.0627545 2.3461936c-.0861198.19.0848982.3953226.2791257.3352581l3.6237486-1.1191613c.2064431-.063742.2272095-.3591613.0311497-.4523226l-2.5609941-1.2270323c-.1166586-.0557742-.2553053-.0036774-.3102754.1170645"/><path d="m46.6690624 38.0223713-2.5573293 1.2264193c-.1954491.0937742-.1752934.3885807.0317605.4529355l3.6231377 1.1191613c.1942276.0600645.3652455-.145871.2791258-.335871l-1.0664192-2.3461935c-.0549701-.120129-.1936168-.1722258-.3102755-.1164516"/></g></g><g transform="translate(0 9)"><g stroke="#3098dc"><path d="m66.9571429 59h-63.27142861c-2.03512858 0-3.68571429-1.6681474-3.68571429-3.7263158v-51.54736841c0-2.05754737 1.65058571-3.72631579 3.68571429-3.72631579h63.27142861c2.0351285 0 3.6857142 1.66876842 3.6857142 3.72631579v51.54736841c0 2.0581684-1.6505857 3.7263158-3.6857142 3.7263158z"/><path d="m66.9571429 7.45263158h-63.27142861c-2.03512858 0-3.68571429-1.66814737-3.68571429-3.72631579 0-2.05754737 1.65058571-3.72631579 3.68571429-3.72631579h63.27142861c2.0351285 0 3.6857142 1.66876842 3.6857142 3.72631579"/><path d="m66.9571429 7.45263158c2.0351285 0 3.6857142 1.66876842 3.6857142 3.72631582"/><path d="m70.6428571 23.5987579h14.8890572v-3.7250737h-14.8890572z"/><path d="m70.6428571 38.6530737h14.8890572v-15.0530737h-14.8890572z"/></g><path d="m35.2784286 22.3578947-6.3117857 10.477779 6.3117857 3.7325263 6.3117857-3.7294211zm-.0952143 15.4052106-6.3117857-3.7294211 6.3117857 8.8984421 6.3154714-8.8984421-6.3167 3.7294211z" fill="#3098dc"/><path d="m50.4672571 32.9642316c0-8.601579-6.8972-15.5747579-15.4050571-15.5747579s-15.4050571 6.9731789-15.4050571 15.5747579c0 8.6022 6.8972 15.5747579 15.4050571 15.5747579s15.4050571-6.9725579 15.4050571-15.5747579z" stroke="#3098dc"/></g></g></svg>

<?xml version="1.0" encoding="UTF-8"?>
<svg width="213px" height="78px" viewBox="0 0 213 78" version="1.1" xmlns="http://www.w3.org/2000/svg" xmlns:xlink="http://www.w3.org/1999/xlink">
    <!-- Generator: sketchtool 50.2 (55047) - http://www.bohemiancoding.com/sketch -->
    <title>2981A924-C7CB-4957-87AD-8C680802DAD7</title>
    <desc>Created with sketchtool.</desc>
    <defs></defs>
    <g id="Import-account" stroke="none" stroke-width="1" fill="none" fill-rule="evenodd">
        <g id="hardware-connect" transform="translate(-406.000000, -602.000000)">
            <g id="Group-9" transform="translate(356.000000, 522.000000)">
                <g id="connect-hardware" transform="translate(51.000000, 81.000000)">
                    <path d="M4,9 L70,9 L70,17 L4,17 C1.790861,17 2.705415e-16,15.209139 0,13 L0,13 C-2.705415e-16,10.790861 1.790861,9 4,9 Z" id="Rectangle" fill="#D9F0FF"></path>
                    <g id="Group-4-Copy">
                        <g id="Group-2" transform="translate(91.000000, 31.000000)" stroke="#3098DC">
                            <polyline id="Stroke-10" points="7.33333333 0 13.4253333 5.29042105 7.33333333 10.5802632"></polyline>
                            <path d="M0,5.21052632 L13.5,5.21052632" id="Stroke-11"></path>
                        </g>
                        <g id="Group-3" transform="translate(109.000000, 0.000000)">
                            <path d="M92.535988,75.1897419 L9.16167665,75.1897419 C7.13816766,75.1897419 5.49700599,73.5434839 5.49700599,71.5123226 L5.49700599,3.67741935 C5.49700599,1.64625806 7.13816766,0 9.16167665,0 L92.535988,0 C94.5601078,0 96.2006587,1.64625806 96.2006587,3.67741935 L96.2006587,71.5123226 C96.2006587,73.5434839 94.5601078,75.1897419 92.535988,75.1897419" id="Fill-12" fill="#FEFEFE"></path>
                            <path d="M92.535988,75.1897419 L9.16167665,75.1897419 C7.13816766,75.1897419 5.49700599,73.5434839 5.49700599,71.5123226 L5.49700599,3.67741935 C5.49700599,1.64625806 7.13816766,0 9.16167665,0 L92.535988,0 C94.5601078,0 96.2006587,1.64625806 96.2006587,3.67741935 L96.2006587,71.5123226 C96.2006587,73.5434839 94.5601078,75.1897419 92.535988,75.1897419 Z" id="Stroke-13" stroke="#3098DC"></path>
                            <path d="M100.70576,75.6298065 L1.22155689,75.6298065 C0.546646707,75.6298065 0,75.0812581 0,74.404 L0,69.8709677 C0,69.1937097 0.546646707,68.6451613 1.22155689,68.6451613 L100.70576,68.6451613 C101.38006,68.6451613 101.927317,69.1937097 101.927317,69.8709677 L101.927317,74.404 C101.927317,75.0812581 101.38006,75.6298065 100.70576,75.6298065" id="Fill-14" fill="#D9F0FF"></path>
                            <path d="M100.70576,75.6298065 L1.22155689,75.6298065 C0.546646707,75.6298065 0,75.0812581 0,74.404 L0,69.8709677 C0,69.1937097 0.546646707,68.6451613 1.22155689,68.6451613 L100.70576,68.6451613 C101.38006,68.6451613 101.927317,69.1937097 101.927317,69.8709677 L101.927317,74.404 C101.927317,75.0812581 101.38006,75.6298065 100.70576,75.6298065 Z" id="Stroke-15" stroke="#3098DC"></path>
                            <polygon id="Fill-16" fill="#FEFEFE" points="9.77245509 63.6953548 92.1554731 63.6953548 92.1554731 4.90322581 9.77245509 4.90322581"></polygon>
                            <polygon id="Stroke-17" stroke="#3098DC" points="9.77245509 63.6953548 92.1554731 63.6953548 92.1554731 4.90322581 9.77245509 4.90322581"></polygon>
                            <path d="M53.4327111,51.4764454 L48.3815734,51.4764454 C48.2930105,51.4764454 48.2081123,51.4494776 48.1354296,51.3986067 L45.1462799,49.3073809 L43.8318847,48.2207035 L36.536747,50.2488002 C36.3101482,50.3113164 36.0719446,50.1770906 36.0059805,49.9490906 L33.8908548,42.6077357 C33.8664237,42.523768 33.8676452,42.4361228 33.8939087,42.352768 L36.1409626,35.2823164 L34.7923638,33.6826389 C34.7141841,33.5900906 34.6775374,33.4675099 34.6921961,33.346768 C34.7068548,33.226026 34.7709865,33.1157035 34.8693219,33.0446067 L35.1105793,32.8693164 L34.4368907,32.2484454 C34.3428308,32.1608002 34.2915255,32.0376067 34.2958009,31.9095099 C34.3006871,31.7808002 34.3611542,31.6612841 34.4607111,31.5822196 L34.8406153,31.2806712 L34.2218967,30.8044454 C34.1150105,30.7223164 34.0508787,30.5905422 34.0521003,30.4544776 C34.0533219,30.3178002 34.1180644,30.1872518 34.2273937,30.1057357 L34.6818129,29.7655744 L33.6019566,24.5289293 C33.5860763,24.4541551 33.5909626,24.3744776 33.6160045,24.3003164 L35.2620524,19.299026 C35.2993099,19.1862518 35.3805434,19.0930906 35.4862081,19.0428325 C35.5918728,18.9919615 35.7140284,18.9864454 35.8233578,19.0275099 L46.4826632,23.0506067 L55.3316213,23.0506067 L65.9903159,19.0275099 C66.0996452,18.9858325 66.2224117,18.9919615 66.3280763,19.0428325 C66.4343518,19.0937035 66.5155853,19.1868647 66.552232,19.299026 L68.1988907,24.3021551 C68.2227111,24.3732518 68.2275973,24.4517035 68.2123278,24.5277035 L67.1440763,29.7674131 L67.5911662,30.1081873 C67.6998847,30.1909293 67.7621841,30.3178002 67.7627949,30.4550906 C67.7634057,30.5905422 67.6998847,30.7210906 67.5936093,30.8038325 L66.9742799,31.2806712 L67.3535734,31.5822196 C67.453741,31.661897 67.5135973,31.7814131 67.5178728,31.9095099 C67.522759,32.0382196 67.4714536,32.1614131 67.3773937,32.2478325 L66.7037051,32.8693164 L66.9455734,33.0452196 C67.0432979,33.1157035 67.1074296,33.226026 67.1220883,33.3473809 C67.136747,33.4681228 67.0994895,33.5907035 67.0213099,33.6832518 L65.6739326,35.2817035 L67.9332021,42.3515422 C67.9600763,42.4336712 67.9612979,42.5225422 67.9374775,42.6071228 L65.8076931,49.9497035 C65.7423398,50.1770906 65.5035255,50.3100906 65.2775374,50.2488002 L57.9823997,48.2207035 L56.6283039,49.3368002 L53.6788548,51.3986067 C53.6061722,51.4494776 53.5206632,51.4764454 53.4327111,51.4764454" id="Fill-18" fill="#FEFEFE"></path>
                            <path d="M53.4327111,51.4764454 L48.3815734,51.4764454 C48.2930105,51.4764454 48.2081123,51.4494776 48.1354296,51.3986067 L45.1462799,49.3073809 L43.8318847,48.2207035 L36.536747,50.2488002 C36.3101482,50.3113164 36.0719446,50.1770906 36.0059805,49.9490906 L33.8908548,42.6077357 C33.8664237,42.523768 33.8676452,42.4361228 33.8939087,42.352768 L36.1409626,35.2823164 L34.7923638,33.6826389 C34.7141841,33.5900906 34.6775374,33.4675099 34.6921961,33.346768 C34.7068548,33.226026 34.7709865,33.1157035 34.8693219,33.0446067 L35.1105793,32.8693164 L34.4368907,32.2484454 C34.3428308,32.1608002 34.2915255,32.0376067 34.2958009,31.9095099 C34.3006871,31.7808002 34.3611542,31.6612841 34.4607111,31.5822196 L34.8406153,31.2806712 L34.2218967,30.8044454 C34.1150105,30.7223164 34.0508787,30.5905422 34.0521003,30.4544776 C34.0533219,30.3178002 34.1180644,30.1872518 34.2273937,30.1057357 L34.6818129,29.7655744 L33.6019566,24.5289293 C33.5860763,24.4541551 33.5909626,24.3744776 33.6160045,24.3003164 L35.2620524,19.299026 C35.2993099,19.1862518 35.3805434,19.0930906 35.4862081,19.0428325 C35.5918728,18.9919615 35.7140284,18.9864454 35.8233578,19.0275099 L46.4826632,23.0506067 L55.3316213,23.0506067 L65.9903159,19.0275099 C66.0996452,18.9858325 66.2224117,18.9919615 66.3280763,19.0428325 C66.4343518,19.0937035 66.5155853,19.1868647 66.552232,19.299026 L68.1988907,24.3021551 C68.2227111,24.3732518 68.2275973,24.4517035 68.2123278,24.5277035 L67.1440763,29.7674131 L67.5911662,30.1081873 C67.6998847,30.1909293 67.7621841,30.3178002 67.7627949,30.4550906 C67.7634057,30.5905422 67.6998847,30.7210906 67.5936093,30.8038325 L66.9742799,31.2806712 L67.3535734,31.5822196 C67.453741,31.661897 67.5135973,31.7814131 67.5178728,31.9095099 C67.522759,32.0382196 67.4714536,32.1614131 67.3773937,32.2478325 L66.7037051,32.8693164 L66.9455734,33.0452196 C67.0432979,33.1157035 67.1074296,33.226026 67.1220883,33.3473809 C67.136747,33.4681228 67.0994895,33.5907035 67.0213099,33.6832518 L65.6739326,35.2817035 L67.9332021,42.3515422 C67.9600763,42.4336712 67.9612979,42.5225422 67.9374775,42.6071228 L65.8076931,49.9497035 C65.7423398,50.1770906 65.5035255,50.3100906 65.2775374,50.2488002 L57.9823997,48.2207035 L56.6283039,49.3368002 L53.6788548,51.3986067 C53.6061722,51.4494776 53.5206632,51.4764454 53.4327111,51.4764454 Z" id="Stroke-19" stroke="#3098DC"></path>
                            <polygon id="Fill-20" fill="#3098DC" points="52.0480958 46.5806452 49.4779401 46.5806452 49.0320719 46.9355161 48.8622754 49.0745484 52.6637605 49.0745484 52.4933533 46.9355161"></polygon>
                            <path d="M54.8341371,38.1394234 L53.7713826,40.485617 C53.6852628,40.675617 53.8562808,40.8809396 54.0505083,40.8208751 L57.6742569,39.7017138 C57.8807,39.6379718 57.9014664,39.3425525 57.7054066,39.2493912 L55.1444125,38.0223589 C55.0277539,37.9665847 54.8891072,38.0186815 54.8341371,38.1394234" id="Fill-21" fill="#3098DC"></path>
                            <path d="M46.6690624,38.0223713 L44.1117331,39.2487906 C43.916284,39.3425648 43.9364397,39.6373713 44.1434936,39.7017261 L47.7666313,40.8208874 C47.9608589,40.8809519 48.1318768,40.6750164 48.0457571,40.4850164 L46.9793379,38.1388229 C46.9243678,38.0186939 46.7857211,37.9665971 46.6690624,38.0223713" id="Fill-22" fill="#3098DC"></path>
                        </g>
                        <g id="Group" transform="translate(0.000000, 9.000000)">
                            <path d="M66.9571429,59 L3.68571429,59 C1.65058571,59 0,57.3318526 0,55.2736842 L0,3.72631579 C0,1.66876842 1.65058571,0 3.68571429,0 L66.9571429,0 C68.9922714,0 70.6428571,1.66876842 70.6428571,3.72631579 L70.6428571,55.2736842 C70.6428571,57.3318526 68.9922714,59 66.9571429,59 Z" id="Stroke-1" stroke="#3098DC"></path>
                            <path d="M66.9571429,7.45263158 L3.68571429,7.45263158 C1.65058571,7.45263158 0,5.78448421 0,3.72631579 C0,1.66876842 1.65058571,0 3.68571429,0 L66.9571429,0 C68.9922714,0 70.6428571,1.66876842 70.6428571,3.72631579" id="Stroke-3" stroke="#3098DC"></path>
                            <path d="M66.9571429,7.45263158 C68.9922714,7.45263158 70.6428571,9.1214 70.6428571,11.1789474" id="Stroke-5" stroke="#3098DC"></path>
                            <polygon id="Stroke-7" stroke="#3098DC" points="70.6428571 23.5987579 85.5319143 23.5987579 85.5319143 19.8736842 70.6428571 19.8736842"></polygon>
                            <polygon id="Stroke-9" stroke="#3098DC" points="70.6428571 38.6530737 85.5319143 38.6530737 85.5319143 23.6 70.6428571 23.6"></polygon>
                            <path d="M35.2784286,22.3578947 L28.9666429,32.8356737 L35.2784286,36.5682 L41.5902143,32.8387789 L35.2784286,22.3578947 Z M35.1832143,37.7631053 L28.8714286,34.0336842 L35.1832143,42.9321263 L41.4986857,34.0336842 L35.1819857,37.7631053 L35.1832143,37.7631053 Z" id="Fill-23" fill="#3098DC"></path>
                            <path d="M50.4672571,32.9642316 C50.4672571,24.3626526 43.5700571,17.3894737 35.0622,17.3894737 C26.5543429,17.3894737 19.6571429,24.3626526 19.6571429,32.9642316 C19.6571429,41.5664316 26.5543429,48.5389895 35.0622,48.5389895 C43.5700571,48.5389895 50.4672571,41.5664316 50.4672571,32.9642316 Z" id="Stroke-24" stroke="#3098DC"></path>
                        </g>
                    </g>
                </g>
            </g>
        </g>
    </g>
</svg>
